X:1
T:[ID 2-120]
T:[ID 2-120]
T:Bezeichnung standardisiert: Menuet [mit Trio] Men\"uet Con Trio
T:Urheber unbekannt Datum in der hier transkribierten schriftlichen Quelle: 1767
C:Urheber unbekannt
C:Datum in der hier transkribierten schriftlichen Quelle: 1767
L:1/8
M:3/4
K:C
V:1 treble 
V:1
 c2 CDEF | G2 A2 B2 | c2 (3agf (3edc | B4 c2 | (eg)(ge)(ec) | (eg)(gd)(dB) | (3edc B2 A2 | G6 :: %8
 GABcde | (f2 f2) .e2 | g2 (3gfe (3agf |{e} d6 | (ce)(eg)(ge) | Gddffd | (3efg c2 TB2 | c6 :| %16
[M:3/4]"^Trio" !fermata!G2 c2 c2 | TB4 c2 | cd e2 e2 | d4 e2 | g2 g3 a | g2 Tf2 e2 | dgbag^f | %23
{g} g6 :: d2 d3 e | d2 Tc2 B2 | g2 g3 a | g2 Tf2 e2 | G2 c2 c2 | cd e2 e2 | dfedcB | c6 :| %32

